preferences/22/yast-disk.svg

<svg width="22" height="22" version="1.1" viewBox="0 0 22 22" xmlns="http://www.w3.org/2000/svg" xmlns:xlink="http://www.w3.org/1999/xlink">
<defs>
<linearGradient id="linearGradient3403" x1="6.9492" x2="11.215" y1="4.5549" y2="59.052" gradientUnits="userSpaceOnUse">
<stop style="stop-color:#32373c" offset="0"/>
<stop style="stop-color:#1a1a1a" offset=".36805"/>
<stop style="stop-color:#31363b" offset="1"/>
</linearGradient>
<linearGradient id="linearGradient20558" x1="25.802" x2="25.111" y1="20.374" y2="58.913" gradientUnits="userSpaceOnUse">
<stop style="stop-color:#3d3d3d" offset="0"/>
<stop offset=".61772"/>
<stop style="stop-color:#3d3d3d" offset="1"/>
</linearGradient>
<linearGradient id="linearGradient4557" x1="43.5" x2="44.142" y1="64.012" y2=".30621" gradientTransform="translate(.36068 -.13017)" gradientUnits="userSpaceOnUse">
<stop style="stop-color:#141618" offset="0"/>
<stop style="stop-color:#686868" offset=".51821"/>
<stop style="stop-color:#31363b" offset="1"/>
</linearGradient>
<linearGradient id="b" x1="388.42" x2="388.42" y1="557.8" y2="505.8" gradientTransform="matrix(.58696 0 0 .53846 -227.99 -270.35)" gradientUnits="userSpaceOnUse">
<stop stop-color="#7f8c8d" offset="0"/>
<stop stop-color="#afb0b3" offset="1"/>
</linearGradient>
<linearGradient id="c" x1="-421.45" x2="-410.45" y1="-504.2" y2="-493.2" xlink:href="#a"/>
<linearGradient id="a" gradientUnits="userSpaceOnUse">
<stop stop-color="#292c2f" offset="0"/>
<stop stop-opacity="0" offset="1"/>
</linearGradient>
<linearGradient id="d" x1="1.333" x2="1.333" y1="48.714" y2="9.714" gradientTransform="matrix(.52174 0 0 .53846 -.696 -1.23)" gradientUnits="userSpaceOnUse">
<stop stop-color="#eef1f2" offset="0"/>
<stop stop-color="#f9fafb" offset="1"/>
</linearGradient>
<linearGradient id="e" x1="16" x2="16" y1="22" y2="6" gradientUnits="userSpaceOnUse">
<stop stop-color="#73ba25" offset="0"/>
<stop stop-color="#81c13b" offset="1"/>
</linearGradient>
<linearGradient id="f" x1="16" x2="16" y1="22" y2="6" gradientUnits="userSpaceOnUse">
<stop stop-color="#173f4f" offset="0"/>
<stop stop-color="#2f5361" offset="1"/>
</linearGradient>
<linearGradient id="g" x1="16" x2="16" y1="22" y2="6" gradientUnits="userSpaceOnUse">
<stop stop-color="#35b9ab" offset="0"/>
<stop stop-color="#4ac0b4" offset="1"/>
</linearGradient>
<linearGradient id="h" x1="9.088" x2="23.102" y1="9.986" y2="24" xlink:href="#a"/>
<linearGradient id="i" x1="8" x2="21" y1="14" y2="27" xlink:href="#a"/>
<linearGradient id="j" x1="16" x2="25" y1="14" y2="23" xlink:href="#a"/>
</defs>
<g transform="matrix(.67362 0 0 .67362 1.6788 -.016709)">
<path d="m4 2h24v28h-24z" fill="url(#b)" style="fill:url(#b)"/>
<path d="m7 27h18v3h-18z" fill="#292c2e"/>
<path d="m9 28h9v1h-9zm10 0h4v1h-4z" fill="#f6b44d"/>
<path d="m24 27h4v3h-4zm-20 0h4v3h-4z" fill="#292c2f" opacity=".2"/>
<path d="m4 27h4v3h-1zm20 0h4v3h-4z" fill="#292c2f" opacity=".2"/>
<path d="m24.535 5.465 3.465 3.463v21.072h-14l-8-8z" fill="url(#c)" opacity=".2" style="fill:url(#c)"/>
<path d="m11 4a5 5 0 0 0-5 5v4.768a3 3 0 0 1 0.996 2.117 2 2 0 0 1 4e-3 0.115 2 2 0 0 1-0.01 0.2 3 3 0 0 1 0 5e-3 3 3 0 0 1-0.99 2.025v3.77l3 3h14l3-3v-3.768a3 3 0 0 1-0.996-2.117 2 2 0 0 1-4e-3 -0.115 2 2 0 0 1 0.01-0.205 3 3 0 0 1 0.99-2.025v-4.77a5 5 0 0 0-5-5z" fill="url(#d)" style="fill:url(#d)"/>
<path d="m16 6a8 8 0 0 0-6.912 3.986l6.912 3.455 6.908-3.455a8 8 0 0 0-6.908-3.986z" fill="url(#e)" style="fill:url(#e)"/>
<path d="m8.635 10.877a8 8 0 0 0-0.635 3.123 8 8 0 0 0 7.5 7.975v-7.666z" fill="url(#f)" style="fill:url(#f)"/>
<path d="m23.357 10.879-6.857 3.43v7.673a8 8 0 0 0 7.5-7.982 8 8 0 0 0-0.643-3.121z" fill="url(#g)" style="fill:url(#g)"/>
<path d="m21.65 8.35 0.05 0.064a8 8 0 0 1 1.208 1.572l-6.908 3.455-6.912-3.455 2.234 2.235 4.178 2.088 1 1v-1l6.857-3.43 4.643 4.641v-0.82z" fill="url(#h)" opacity=".2" style="fill:url(#h)"/>
<path d="m15.5 14.309v7.666a8 8 0 0 1-5.066-2.239l7.261 7.264h3.823l-5.018-5.018v-6.672zm-5.066 5.427a8 8 0 0 1-0.082-0.088l-4e-3 4e-3z" fill="url(#i)" opacity=".2" style="fill:url(#i)"/>
<path d="m23.357 10.879a8 8 0 0 1 0.643 3.121 8 8 0 0 1-7.5 7.982l5.018 5.018h6.482v-11.479z" fill="url(#j)" opacity=".2" style="fill:url(#j)"/>
<path d="m4 29h3v1h-3zm21 0h3v1h-3z" fill="#292c2f" opacity=".2"/>
</g>
<path transform="matrix(.33365 0 0 .33365 .46548 .36296)" d="m4.7043 3.9815-0.012938 56.82h53.904l1.0222-2.8664s-23.875 0.76639-32.844-4.1404c-10.516-5.7529-15.372-49.697-15.372-49.697z" style="fill:url(#linearGradient3403);mix-blend-mode:normal;stroke-linejoin:round;stroke-width:1.1624;stroke:url(#linearGradient20558)"/>
<rect transform="matrix(.31255 0 0 .31192 1.0261 1.0372)" x="1.0324" y=".59551" width="62.567" height="62.867" rx="5.803" ry="6.2447" style="fill:none;stroke-linejoin:round;stroke-miterlimit:7.8;stroke-opacity:.99515;stroke-width:3.7137;stroke:url(#linearGradient4557)"/>
</svg>

<?xml version="1.0" encoding="UTF-8" standalone="no"?>
<!-- Created with Inkscape (http://www.inkscape.org/) -->

<svg
   width="22"
   height="22"
   version="1.1"
   viewBox="0 0 22 22"
   id="svg22"
   sodipodi:docname="yast-disk.svg"
   inkscape:version="1.1.2 (0a00cf5339, 2022-02-04)"
   xmlns:inkscape="http://www.inkscape.org/namespaces/inkscape"
   xmlns:sodipodi="http://sodipodi.sourceforge.net/DTD/sodipodi-0.dtd"
   xmlns:xlink="http://www.w3.org/1999/xlink"
   xmlns="http://www.w3.org/2000/svg"
   xmlns:svg="http://www.w3.org/2000/svg">
  <sodipodi:namedview
     id="namedview24"
     pagecolor="#ffffff"
     bordercolor="#666666"
     borderopacity="1.0"
     inkscape:showpageshadow="2"
     inkscape:pageopacity="0.0"
     inkscape:pagecheckerboard="0"
     inkscape:deskcolor="#d1d1d1"
     showgrid="false"
     inkscape:zoom="25.62"
     inkscape:cx="3.7080406"
     inkscape:cy="14.754098"
     inkscape:window-width="3440"
     inkscape:window-height="1356"
     inkscape:window-x="0"
     inkscape:window-y="0"
     inkscape:window-maximized="1"
     inkscape:current-layer="svg22"
     inkscape:pageshadow="2" />
  <defs
     id="defs12">
    <linearGradient
       id="linearGradient1005-3-3"
       x1="5.2535"
       x2="9.3823996"
       y1="15.383"
       y2="2.9421"
       gradientTransform="matrix(0.99999,0,0,0.99999,1.632,-0.61743)"
       gradientUnits="userSpaceOnUse">
      <stop
         stop-color="#fa8200"
         offset="0"
         id="stop2" />
      <stop
         stop-color="#ff9600"
         offset=".36953"
         id="stop4" />
      <stop
         stop-color="#ffb400"
         offset="1"
         id="stop6" />
    </linearGradient>
    <filter
       id="filter4014"
       x="-0.062499933"
       y="-0.057692993"
       width="1.1249999"
       height="1.115386"
       color-interpolation-filters="sRGB">
      <feGaussianBlur
         stdDeviation="1.093751"
         id="feGaussianBlur9" />
    </filter>
    <linearGradient
       inkscape:collect="always"
       xlink:href="#linearGradient3487"
       id="linearGradient3403"
       gradientUnits="userSpaceOnUse"
       x1="6.9491749"
       y1="4.5549412"
       x2="11.215498"
       y2="59.052471" />
    <linearGradient
       id="linearGradient3487">
      <stop
         style="stop-color:#32373c;stop-opacity:1"
         offset="0"
         id="stop3481" />
      <stop
         id="stop3483"
         offset="0.36804965"
         style="stop-color:#1a1a1a;stop-opacity:1" />
      <stop
         style="stop-color:#31363b;stop-opacity:1"
         offset="1"
         id="stop3485" />
    </linearGradient>
    <linearGradient
       inkscape:collect="always"
       xlink:href="#linearGradient20604"
       id="linearGradient20558"
       gradientUnits="userSpaceOnUse"
       x1="25.802212"
       y1="20.373846"
       x2="25.111048"
       y2="58.912758" />
    <linearGradient
       id="linearGradient20604">
      <stop
         id="stop20598"
         offset="0"
         style="stop-color:#3d3d3d;stop-opacity:1" />
      <stop
         style="stop-color:#000000;stop-opacity:1"
         offset="0.61772454"
         id="stop20600" />
      <stop
         id="stop20602"
         offset="1"
         style="stop-color:#3d3d3d;stop-opacity:1" />
    </linearGradient>
    <filter
       inkscape:collect="always"
       style="color-interpolation-filters:sRGB"
       id="filter20720"
       x="-0.017024755"
       y="-0.016457183"
       width="1.0340491"
       height="1.0329144">
      <feGaussianBlur
         inkscape:collect="always"
         stdDeviation="0.14745661"
         id="feGaussianBlur20722" />
    </filter>
    <linearGradient
       gradientTransform="translate(0.36067797,-0.13016949)"
       xlink:href="#linearGradient4555"
       id="linearGradient4557"
       x1="43.499737"
       y1="64.011795"
       x2="44.141731"
       y2="0.30621234"
       gradientUnits="userSpaceOnUse" />
    <linearGradient
       id="linearGradient4555">
      <stop
         style="stop-color:#141618;stop-opacity:1"
         offset="0"
         id="stop4551" />
      <stop
         id="stop4559"
         offset="0.51820582"
         style="stop-color:#686868;stop-opacity:1" />
      <stop
         style="stop-color:#31363b;stop-opacity:1"
         offset="1"
         id="stop4553" />
    </linearGradient>
    <filter
       style="color-interpolation-filters:sRGB"
       id="filter4601"
       x="-0.030244762"
       width="1.0604895"
       y="-0.030100647"
       height="1.0602013">
      <feGaussianBlur
         stdDeviation="0.014790289"
         id="feGaussianBlur4603" />
    </filter>
    <linearGradient
       id="b"
       gradientTransform="matrix(0.58696,0,0,0.53846,-227.988,-270.353)"
       gradientUnits="userSpaceOnUse"
       x1="388.423"
       x2="388.423"
       y1="557.79797"
       y2="505.798">
      <stop
         offset="0"
         stop-color="#7f8c8d"
         id="stop31" />
      <stop
         offset="1"
         stop-color="#afb0b3"
         id="stop33" />
    </linearGradient>
    <linearGradient
       id="c"
       x1="-421.44699"
       x2="-410.44699"
       xlink:href="#a"
       y1="-504.20401"
       y2="-493.20401" />
    <linearGradient
       id="a"
       gradientUnits="userSpaceOnUse">
      <stop
         offset="0"
         stop-color="#292c2f"
         id="stop2-1" />
      <stop
         offset="1"
         stop-opacity="0"
         id="stop4-2" />
    </linearGradient>
    <linearGradient
       id="d"
       gradientTransform="matrix(0.52174,0,0,0.53846,-0.696,-1.23)"
       gradientUnits="userSpaceOnUse"
       x1="1.3329999"
       x2="1.3329999"
       y1="48.714001"
       y2="9.7139997">
      <stop
         offset="0"
         stop-color="#eef1f2"
         id="stop26" />
      <stop
         offset="1"
         stop-color="#f9fafb"
         id="stop28" />
    </linearGradient>
    <linearGradient
       id="e"
       gradientUnits="userSpaceOnUse"
       x1="16"
       x2="16"
       y1="22"
       y2="6">
      <stop
         offset="0"
         stop-color="#73ba25"
         id="stop8" />
      <stop
         offset="1"
         stop-color="#81c13b"
         id="stop10" />
    </linearGradient>
    <linearGradient
       id="f"
       gradientUnits="userSpaceOnUse"
       x1="16"
       x2="16"
       y1="22"
       y2="6">
      <stop
         offset="0"
         stop-color="#173f4f"
         id="stop13" />
      <stop
         offset="1"
         stop-color="#2f5361"
         id="stop15" />
    </linearGradient>
    <linearGradient
       id="g"
       gradientUnits="userSpaceOnUse"
       x1="16"
       x2="16"
       y1="22"
       y2="6">
      <stop
         offset="0"
         stop-color="#35b9ab"
         id="stop18" />
      <stop
         offset="1"
         stop-color="#4ac0b4"
         id="stop20" />
    </linearGradient>
    <linearGradient
       id="h"
       x1="9.0880003"
       x2="23.101999"
       xlink:href="#a"
       y1="9.9860001"
       y2="24" />
    <linearGradient
       id="i"
       x1="8"
       x2="21"
       xlink:href="#a"
       y1="14"
       y2="27" />
    <linearGradient
       id="j"
       x1="16"
       x2="25"
       xlink:href="#a"
       y1="14"
       y2="23" />
  </defs>
  <g
     id="g899"
     transform="matrix(0.67361525,0,0,0.67361525,1.6788218,-0.01670868)">
    <path
       d="M 4,2 H 28 V 30 H 4 Z"
       fill="url(#b)"
       id="path36"
       style="fill:url(#b)" />
    <path
       d="m 7,27 h 18 v 3 H 7 Z"
       fill="#292c2e"
       id="path38" />
    <path
       d="m 9,28 h 9 v 1 H 9 Z m 10,0 h 4 v 1 h -4 z"
       fill="#f6b44d"
       id="path40" />
    <path
       d="m 24,27 h 4 v 3 H 24 Z M 4,27 h 4 v 3 H 4 Z"
       fill="#292c2f"
       opacity="0.2"
       id="path42" />
    <path
       d="m 4,27 h 4 v 3 H 7 Z m 20,0 h 4 v 3 h -4 z"
       fill="#292c2f"
       opacity="0.2"
       id="path44" />
    <path
       d="M 24.535,5.465 28,8.928 V 30 H 14 L 6,22 Z"
       fill="url(#c)"
       opacity="0.2"
       id="path46"
       style="fill:url(#c)" />
    <path
       d="M 11,4 A 5,5 0 0 0 6,9 v 4.768 A 3,3 0 0 1 6.996,15.885 2,2 0 0 1 7,16 2,2 0 0 1 6.99,16.2 3,3 0 0 1 6.99,16.205 3,3 0 0 1 6,18.23 V 22 l 3,3 h 14 l 3,-3 V 18.232 A 3,3 0 0 1 25.004,16.115 2,2 0 0 1 25,16 2,2 0 0 1 25.01,15.795 3,3 0 0 1 26,13.77 V 9 A 5,5 0 0 0 21,4 Z"
       fill="url(#d)"
       id="path48"
       style="fill:url(#d)" />
    <path
       d="M 16,6 A 8,8 0 0 0 9.088,9.986 L 16,13.441 22.908,9.986 A 8,8 0 0 0 16,6 Z"
       fill="url(#e)"
       id="path50"
       style="fill:url(#e)" />
    <path
       d="M 8.635,10.877 A 8,8 0 0 0 8,14 a 8,8 0 0 0 7.5,7.975 v -7.666 z"
       fill="url(#f)"
       id="path52"
       style="fill:url(#f)" />
    <path
       d="m 23.357,10.879 -6.857,3.43 v 7.673 A 8,8 0 0 0 24,14 8,8 0 0 0 23.357,10.879 Z"
       fill="url(#g)"
       id="path54"
       style="fill:url(#g)" />
    <path
       d="m 21.65,8.35 0.05,0.064 a 8,8 0 0 1 1.208,1.572 L 16,13.441 9.088,9.986 l 2.234,2.235 4.178,2.088 1,1 v -1 L 23.357,10.879 28,15.52 V 14.7 Z"
       fill="url(#h)"
       opacity="0.2"
       id="path56"
       style="fill:url(#h)" />
    <path
       d="m 15.5,14.309 v 7.666 A 8,8 0 0 1 10.434,19.736 L 17.695,27 h 3.823 L 16.5,21.982 V 15.31 Z m -5.066,5.427 a 8,8 0 0 1 -0.082,-0.088 l -0.004,0.004 z"
       fill="url(#i)"
       opacity="0.2"
       id="path58"
       style="fill:url(#i)" />
    <path
       d="M 23.357,10.879 A 8,8 0 0 1 24,14 8,8 0 0 1 16.5,21.982 L 21.518,27 H 28 V 15.521 Z"
       fill="url(#j)"
       opacity="0.2"
       id="path60"
       style="fill:url(#j)" />
    <path
       d="m 4,29 h 3 v 1 H 4 Z m 21,0 h 3 v 1 h -3 z"
       fill="#292c2f"
       opacity="0.2"
       id="path62" />
  </g>
  <path
     style="display:inline;mix-blend-mode:normal;fill:url(#linearGradient3403);fill-opacity:1;stroke:url(#linearGradient20558);stroke-width:1.16242;stroke-linecap:butt;stroke-linejoin:round;stroke-miterlimit:4;stroke-dasharray:none;stroke-opacity:1;filter:url(#filter20720)"
     d="M 4.7043071,3.9814882 4.6913695,60.80196 H 58.59546 l 1.022155,-2.866369 c 0,0 -23.87537,0.766388 -32.844441,-4.140386 C 16.257548,48.042344 11.401114,4.0978197 11.401114,4.0978197 Z"
     id="path1686"
     sodipodi:nodetypes="ccccscc"
     transform="matrix(0.33364604,0,0,0.33364604,0.46547503,0.36296086)"
     inkscape:label="folder" />
  <rect
     style="display:inline;fill:none;fill-opacity:1;stroke:url(#linearGradient4557);stroke-width:3.71366;stroke-linejoin:round;stroke-miterlimit:7.8;stroke-dasharray:none;stroke-opacity:0.995146;filter:url(#filter4601)"
     id="rect4539"
     width="62.567089"
     height="62.866646"
     x="1.0323594"
     y="0.59551275"
     ry="6.2447233"
     rx="5.8029528"
     transform="matrix(0.31255386,0,0,0.3119168,1.0260546,1.037158)"
     inkscape:label="contour" />
</svg>
